X:85
T: WIR KOMMEN DAHER IN DER HEILIGSTEN ZEIT
N: K1695
O: Europa, Mitteleuropa, Deutschland, Franken
R: Kinder -, Ansinge - Lied, Bettel - Reim
M: 3/8
L: 1/16
K: G
GA | B2B2B2 | G2
A2B2 | d2c2B2 | A4
G2 | F3AA2 | A2B2
c2 | B4A2 | G4z2

@@@ Tune index: 7422
